packages/ffe-icons/icons/open/400/sm/salinity.svg

<svg xmlns="http://www.w3.org/2000/svg" height="20" viewBox="0 -960 960 960" width="20"><path d="M480-96q-121 0-208.5-79T170-371q-2-17.146 7.5-27.073T204-408q17 0 27.083 10.829Q241.167-386.341 243-371q14 87 80 145t157 58q91 0 157-58t80-145q1.806-15.341 11.742-26.171Q738.677-408 755.839-408q17.161 0 26.661 9.927T790-371q-14 117-101.5 196T480-96ZM204.211-480Q189-480 178.5-490.289q-10.5-10.29-10.5-25.5Q168-531 178.289-541.5q10.29-10.5 25.5-10.5Q219-552 229.5-541.711q10.5 10.29 10.5 25.5Q240-501 229.711-490.5q-10.29 10.5-25.5 10.5Zm180 0Q369-480 358.5-490.289q-10.5-10.29-10.5-25.5Q348-531 358.289-541.5q10.29-10.5 25.5-10.5Q399-552 409.5-541.711q10.5 10.29 10.5 25.5Q420-501 409.711-490.5q-10.29 10.5-25.5 10.5Zm192 0Q561-480 550.5-490.289q-10.5-10.29-10.5-25.5Q540-531 550.289-541.5q10.29-10.5 25.5-10.5Q591-552 601.5-541.711q10.5 10.29 10.5 25.5Q612-501 601.711-490.5q-10.29 10.5-25.5 10.5Zm180 0Q741-480 730.5-490.289q-10.5-10.29-10.5-25.5Q720-531 730.289-541.5q10.29-10.5 25.5-10.5Q771-552 781.5-541.711q10.5 10.29 10.5 25.5Q792-501 781.711-490.5q-10.29 10.5-25.5 10.5Zm-468-96Q273-576 262.5-586.289q-10.5-10.29-10.5-25.5Q252-627 262.289-637.5q10.29-10.5 25.5-10.5Q303-648 313.5-637.711q10.5 10.29 10.5 25.5Q324-597 313.711-586.5q-10.29 10.5-25.5 10.5Zm385 0Q658-576 647.5-586.289q-10.5-10.29-10.5-25.5Q637-627 647.289-637.5q10.29-10.5 25.5-10.5Q688-648 698.5-637.711q10.5 10.29 10.5 25.5Q709-597 698.711-586.5q-10.29 10.5-25.5 10.5Zm-193 0Q465-576 454.5-586.289q-10.5-10.29-10.5-25.5Q444-627 454.289-637.5q10.29-10.5 25.5-10.5Q495-648 505.5-637.711q10.5 10.29 10.5 25.5Q516-597 505.711-586.5q-10.29 10.5-25.5 10.5Zm-96-96Q369-672 358.5-682.289q-10.5-10.29-10.5-25.5Q348-723 358.289-733.5q10.29-10.5 25.5-10.5Q399-744 409.5-733.711q10.5 10.29 10.5 25.5Q420-693 409.711-682.5q-10.29 10.5-25.5 10.5Zm193 0Q562-672 551.5-682.289q-10.5-10.29-10.5-25.5Q541-723 551.289-733.5q10.29-10.5 25.5-10.5Q592-744 602.5-733.711q10.5 10.29 10.5 25.5Q613-693 602.711-682.5q-10.29 10.5-25.5 10.5Zm-97-96Q465-768 454.5-778.289q-10.5-10.29-10.5-25.5Q444-819 454.289-829.5q10.29-10.5 25.5-10.5Q495-840 505.5-829.711q10.5 10.29 10.5 25.5Q516-789 505.711-778.5q-10.29 10.5-25.5 10.5ZM480-408Z"/></svg>

<svg xmlns="http://www.w3.org/2000/svg" height="20" viewBox="0 -960 960 960" width="20"><path d="M480-96q-121 0-208.5-79T170-371q-2-17.15 7.5-27.07Q187-408 204-408t27.08 10.83Q241.17-386.34 243-371q14 87 80 145t157 58q91 0 157-58t80-145q1.81-15.34 11.74-26.17 9.94-10.83 27.1-10.83 17.16 0 26.66 9.93 9.5 9.92 7.5 27.07-14 117-101.5 196T480-96ZM204.21-480q-15.21 0-25.71-10.29t-10.5-25.5q0-15.21 10.29-25.71t25.5-10.5q15.21 0 25.71 10.29t10.5 25.5q0 15.21-10.29 25.71t-25.5 10.5Zm180 0q-15.21 0-25.71-10.29t-10.5-25.5q0-15.21 10.29-25.71t25.5-10.5q15.21 0 25.71 10.29t10.5 25.5q0 15.21-10.29 25.71t-25.5 10.5Zm192 0q-15.21 0-25.71-10.29t-10.5-25.5q0-15.21 10.29-25.71t25.5-10.5q15.21 0 25.71 10.29t10.5 25.5q0 15.21-10.29 25.71t-25.5 10.5Zm180 0q-15.21 0-25.71-10.29t-10.5-25.5q0-15.21 10.29-25.71t25.5-10.5q15.21 0 25.71 10.29t10.5 25.5q0 15.21-10.29 25.71t-25.5 10.5Zm-468-96q-15.21 0-25.71-10.29t-10.5-25.5q0-15.21 10.29-25.71t25.5-10.5q15.21 0 25.71 10.29t10.5 25.5q0 15.21-10.29 25.71t-25.5 10.5Zm385 0q-15.21 0-25.71-10.29t-10.5-25.5q0-15.21 10.29-25.71t25.5-10.5q15.21 0 25.71 10.29t10.5 25.5q0 15.21-10.29 25.71t-25.5 10.5Zm-193 0q-15.21 0-25.71-10.29t-10.5-25.5q0-15.21 10.29-25.71t25.5-10.5q15.21 0 25.71 10.29t10.5 25.5q0 15.21-10.29 25.71t-25.5 10.5Zm-96-96q-15.21 0-25.71-10.29t-10.5-25.5q0-15.21 10.29-25.71t25.5-10.5q15.21 0 25.71 10.29t10.5 25.5q0 15.21-10.29 25.71t-25.5 10.5Zm193 0q-15.21 0-25.71-10.29t-10.5-25.5q0-15.21 10.29-25.71t25.5-10.5q15.21 0 25.71 10.29t10.5 25.5q0 15.21-10.29 25.71t-25.5 10.5Zm-97-96q-15.21 0-25.71-10.29t-10.5-25.5q0-15.21 10.29-25.71t25.5-10.5q15.21 0 25.71 10.29t10.5 25.5q0 15.21-10.29 25.71t-25.5 10.5ZM480-408Z"/></svg>
